X:1
T:Eyes Right
R:reel
M:2/4
L:1/16
B: Ryan's Mammoth Collection
Z: Contributed by Ray Davies,  ray:davies99.freeserve.co.uk
K:G
uD2"^Segno"|DGGF GABG|EAA^G ABcA|FDFA d3 c|BcAB GDB,C|
DGGF GABG|EAA^G ABcA|FDFA d3 c|BGAB G2H::
vFG|AAFA dd"4"ed|BBGB eefe|^ccAc egfe|d^cBA GEFG|
AAFA dd"4"ed|BBGB eefg|afdA ge^cA|1 d2f2d2:|2 dfed =cAFE"^Segno""_D.S."||
